libs/ui/packages/crypto-icons/src/svg/TIFI.svg

<svg height="24" width="24" viewBox="0 0 24 24" fill="none">
  <path d="M1.11627 15.1627L8.93023 7.34883L12.2790 7.34883L15.0697 10.13953L13.3953 11.81395L10.6046 9.02325L4.46511 15.1627ZM8.93023 14.0465L10.6046 12.37209L13.3953 15.1627L19.5348 9.02325L22.8837 9.02325L15.0697 16.8372L11.7209 16.8372Z" fill="#00a3ff" />
</svg>

<svg width="24" height="24" viewBox="0 0 24 24" fill="none"><path fill="#00a3ff" d="M1.116 15.163 8.93 7.349h3.349l2.79 2.79-1.674 1.675-2.79-2.79-6.14 6.139Zm7.814-1.117 1.675-1.674 2.79 2.79 6.14-6.139h3.349l-7.814 7.814h-3.35Z"/></svg>
